src/components/Icon/assets/minus-circle.svg

<svg width="24" height="24" viewBox="0 0 24 24" fill="none" xmlns="http://www.w3.org/2000/svg">
<path fill-rule="evenodd" clip-rule="evenodd" d="M4.0002 12.0001C4.0002 16.4111 7.5892 20.0001 12.0002 20.0001C16.4112 20.0001 20.0002 16.4111 20.0002 12.0001C20.0002 7.58912 16.4112 4.00012 12.0002 4.00012C7.5892 4.00012 4.0002 7.58912 4.0002 12.0001ZM2.0002 12.0001C2.0002 6.47712 6.4772 2.00012 12.0002 2.00012C17.5232 2.00012 22.0002 6.47712 22.0002 12.0001C22.0002 17.5231 17.5232 22.0001 12.0002 22.0001C6.4772 22.0001 2.0002 17.5231 2.0002 12.0001ZM17.86 13H6.14V11H17.86V13Z" fill="#65676A"/>
</svg>

<svg xmlns="http://www.w3.org/2000/svg" width="24" height="24" viewBox="0 0 24 24">
    <path fill="#65676A" fill-rule="evenodd" d="M12 2c5.523 0 10 4.477 10 10s-4.477 10-10 10S2 17.523 2 12 6.477 2 12 2zm0 2c-4.41 0-8 3.59-8 8 0 4.411 3.59 8 8 8 4.411 0 8-3.589 8-8 0-4.41-3.589-8-8-8zm5.86 7v2H6.14v-2h11.72z"/>
</svg>
